packages/tokens/icons/workplace/size16Px.svg

<svg viewBox="0 0 16 16" fill="none" xmlns="http://www.w3.org/2000/svg" width="1em" height="1em"><path d="M9.43402 14.8271C8.97414 14.9399 8.49393 14.9997 8 14.9997C7.50607 14.9997 7.02586 14.9399 6.56598 14.8271M2 7.70736C2.32322 5.86089 3.45027 4.29733 5 3.4043M14 7.70736C13.6768 5.86089 12.5497 4.29733 11 3.4043" stroke="currentColor" stroke-linecap="round"/><path d="M11 14.5V14C11 13.1716 11.6716 12.5 12.5 12.5V12.5C13.3284 12.5 14 13.1716 14 14V14.5" stroke="currentColor" stroke-linecap="round"/><path d="M13.5 10C13.5 10.5523 13.0523 11 12.5 11C11.9477 11 11.5 10.5523 11.5 10C11.5 9.44772 11.9477 9 12.5 9C13.0523 9 13.5 9.44772 13.5 10Z" stroke="currentColor" stroke-linecap="round" stroke-linejoin="round"/><path d="M2 14.5V14C2 13.1716 2.67157 12.5 3.5 12.5V12.5C4.32843 12.5 5 13.1716 5 14V14.5" stroke="currentColor" stroke-linecap="round"/><path d="M4.5 10C4.5 10.5523 4.05228 11 3.5 11C2.94772 11 2.5 10.5523 2.5 10C2.5 9.44772 2.94772 9 3.5 9C4.05228 9 4.5 9.44772 4.5 10Z" stroke="currentColor" stroke-linecap="round" stroke-linejoin="round"/><path d="M6.5 7V6.5C6.5 5.67157 7.17157 5 8 5V5C8.82843 5 9.5 5.67157 9.5 6.5V7" stroke="currentColor" stroke-linecap="round"/><path d="M9 2.5C9 3.05228 8.55228 3.5 8 3.5C7.44772 3.5 7 3.05228 7 2.5C7 1.94772 7.44772 1.5 8 1.5C8.55228 1.5 9 1.94772 9 2.5Z" stroke="currentColor" stroke-linecap="round" stroke-linejoin="round"/></svg>

<svg xmlns="http://www.w3.org/2000/svg" fill="none" viewBox="0 0 16 16" width="1em" height="1em"><path stroke="currentColor" stroke-linecap="round" d="M9.434 14.827a6.013 6.013 0 0 1-2.868 0M2 7.707a6.202 6.202 0 0 1 3-4.303m9 4.303a6.202 6.202 0 0 0-3-4.303M11 14.5V14a1.5 1.5 0 0 1 1.5-1.5v0A1.5 1.5 0 0 1 14 14v.5"/><path stroke="currentColor" stroke-linecap="round" stroke-linejoin="round" d="M13.5 10a1 1 0 1 1-2 0 1 1 0 0 1 2 0Z"/><path stroke="currentColor" stroke-linecap="round" d="M2 14.5V14a1.5 1.5 0 0 1 1.5-1.5v0A1.5 1.5 0 0 1 5 14v.5"/><path stroke="currentColor" stroke-linecap="round" stroke-linejoin="round" d="M4.5 10a1 1 0 1 1-2 0 1 1 0 0 1 2 0Z"/><path stroke="currentColor" stroke-linecap="round" d="M6.5 7v-.5A1.5 1.5 0 0 1 8 5v0a1.5 1.5 0 0 1 1.5 1.5V7"/><path stroke="currentColor" stroke-linecap="round" stroke-linejoin="round" d="M9 2.5a1 1 0 1 1-2 0 1 1 0 0 1 2 0Z"/></svg>
